RestoDelMundo/Varios/Gws Giants.svg

<svg xmlns="http://www.w3.org/2000/svg" width="100" height="94" viewBox="0 0 100 94"><path fill="#f15c22" d="m39.259 23.308.744-.479.838-.32.886-.08h27.031L84.434.564H43.929l-2.732.123-2.691.356-2.55.613-2.465.878-2.382 1.052-2.247 1.276-2.106 1.45-1.938 1.626-1.808 1.796-1.677 1.981-1.447 2.102-1.28 2.197-1.052 2.369-.841 2.463-.621 2.592-.394 2.635-.133 2.714.133 2.73.394 2.634.621 2.539.841 2.503 1.052 2.329 1.28 2.249 1.447 2.103 1.677 1.969 1.808 1.811 1.938 1.622 2.106 1.45 2.247 1.265 2.382 1.064 2.465.826 2.55.625 2.691.388 2.732.131 20.208-28.183h-15.59l-1.268 1.756-.623.652-.754.533-.826.306-.932.133H32.736l5.903-8.265Z"/><g fill="#f15c22"><path d="M18.953 70.406h5.026v23.029h-5.026ZM8.074 85.259h3.269v3.436l-.096.076-.085.095H5.741l-.132-.095-.033-.076-.05-.189V75.32l.05-.134.033-.118.132-.053.133-.041h5.108l.132.041.095.053.085.118.049.134v2.33h4.88v-3.423l-.085-.878-.262-.788-.488-.757-.576-.56-.707-.439-.79-.321-.872-.078H4.329l-.873.078-.789.321-.755.439-.576.56-.442.757-.3.788-.094.878v15.425l.094.88.3.799.442.69.576.574.755.438.789.308.873.095h8.15l1.018-.137.885-.398.791-.572.574-.786.391-.88.135-1.011V80.9H8.074ZM99.453 83.458l-.218-.707-.311-.612-.475-.479-.576-.398-.658-.308-.803-.266-1.627-.442-1.362-.396-1.152-.307-.92-.266-.706-.215-.577-.132-.344-.131-.215-.042-.135-.053-.092-.078-.085-.095-.05-.082-.044-.131V75.32l.044-.134.097-.118.085-.053.13-.041h4.67l.13.041.085.053.094.118.036.134v1.945h4.896v-3.038l-.085-.878-.276-.788-.48-.757-.571-.56-.705-.439-.791-.321-.886-.078h-7.613l-.884.078-.838.321-.706.439-.561.56-.444.757-.312.788-.085.878v5.144l.085.84.179.689.348.574.49.494.563.384.753.36.791.265 1.497.389 1.279.4 1.103.304.884.227.707.213.562.176.405.088.3.084.13.054.135.078.094.095.085.092v3.518l-.085.076-.132.095h-5.109l-.132-.095-.047-.076-.05-.189v-1.929h-4.927v3.075l.13.88.262.799.444.69.623.574.706.438.788.308.876.095h7.836l.886-.095.79-.308.706-.438.576-.574.491-.69.262-.799.083-.88v-5.355ZM59.243 83.899l-7.704-13.493h-4.835v23.03h4.835V80.021l7.704 13.415h4.847v-23.03h-4.847ZM32.787 70.406l-7.541 23.029h5.111l1.412-4.569h7.094l1.447 4.569h5.161l-7.623-23.029zm.477 14.067 2.071-7.699 2.073 7.699zM65.851 74.974h5.994v18.462h5.014V74.974h5.948v-4.568H65.851Z"/></g><g fill="#36454f" stroke="#36454f" stroke-miterlimit="10" stroke-width=".15"><path d="M3.248 62.518H1.6a.83.83 0 0 0-.648.285q-.254.285-.254.736v4.084q0 .22.07.41.07.187.188.322.12.132.283.211a.8.8 0 0 0 .361.078h1.648q.394 0 .652-.291.258-.29.258-.733V65.6H2.444v.597h1.14v1.316a.57.57 0 0 1-.127.391.44.44 0 0 1-.349.143H1.747a.44.44 0 0 1-.349-.143.57.57 0 0 1-.127-.391V63.65q0-.25.127-.392a.44.44 0 0 1 .349-.142h1.361q.221 0 .349.142a.57.57 0 0 1 .127.392v.635l.574-.102v-.644q0-.451-.258-.736a.84.84 0 0 0-.652-.285zM8.932 65.719q.205-.267.205-.682v-1.498q0-.451-.254-.736a.83.83 0 0 0-.647-.285H5.701v6.127h.574v-2.586H7.76l1.123 2.586h.615L8.375 66.05a.88.88 0 0 0 .557-.331zm-2.657-.257v-2.346h1.812q.23 0 .353.141a.58.58 0 0 1 .123.391v1.282a.58.58 0 0 1-.123.39q-.123.143-.353.143zM11.245 65.773h2.312v-.597h-2.312v-2.06h2.542v-.598H10.67v6.127h3.133v-.599h-2.558ZM16.82 62.518l-1.886 6.127h.582l.476-1.582h2.181l.492 1.582h.582l-1.886-6.127zm-.648 3.946.918-3.155.91 3.155zM19.373 63.116h1.631v5.529h.574v-5.529h1.624v-.598h-3.829ZM24.888 65.773h2.313v-.597h-2.313v-2.06h2.542v-.598h-3.116v6.127h3.133v-.599h-2.559ZM31.971 65.719q.205-.267.205-.682v-1.498q0-.451-.254-.736a.83.83 0 0 0-.647-.285H28.74v6.127h.574v-2.586h1.484l1.123 2.586h.615l-1.124-2.595a.88.88 0 0 0 .559-.331zm-2.657-.257v-2.346h1.812q.23 0 .353.141a.58.58 0 0 1 .123.391v1.282a.58.58 0 0 1-.123.39q-.123.143-.353.143zM39.546 67.596l-1.197-5.078h-.516l-1.206 5.078-.918-5.078h-.558l1.164 6.127h.583l1.189-5.116 1.197 5.116h.574l1.164-6.127h-.557ZM42.957 65.773h2.311v-.597h-2.311v-2.06h2.542v-.598h-3.117v6.127h3.132v-.599h-2.557ZM49.754 65.843a1.1 1.1 0 0 0-.271-.201 2 2 0 0 0-.337-.139q-.247-.083-.409-.133a8 8 0 0 1-.316-.102l-.319-.101-.423-.133q-.205-.065-.332-.184c-.127-.119-.127-.2-.127-.358v-.836a.6.6 0 0 1 .119-.395q.119-.147.356-.146h1.23q.237 0 .356.146a.6.6 0 0 1 .119.396v.663l.573-.111v-.662q0-.452-.254-.741a.83.83 0 0 0-.647-.289h-1.518a.84.84 0 0 0-.651.285q-.258.285-.259.736v1.066q0 .423.246.649.246.224.615.345.23.073.397.124.169.05.324.101l.328.106q.171.056.41.128a.8.8 0 0 1 .349.194q.11.118.11.349v.911q0 .248-.119.391t-.356.143h-1.279q-.237 0-.356-.143a.6.6 0 0 1-.119-.391v-.672l-.574.11v.672q0 .442.259.732.259.288.651.289h1.566a.82.82 0 0 0 .647-.289q.255-.29.255-.73v-1.12q0-.22-.066-.382a.9.9 0 0 0-.178-.278zM51.062 63.116h1.632v5.529h.575v-5.529h1.623v-.598h-3.83ZM56.537 65.773h2.311v-.597h-2.311v-2.06h2.541v-.598h-3.115v6.127h3.131v-.599h-2.557ZM63.599 65.719q.205-.267.205-.682v-1.498q-.001-.451-.254-.736a.84.84 0 0 0-.648-.285h-2.533v6.127h.574v-2.586h1.482l1.125 2.586h.613L63.04 66.05a.88.88 0 0 0 .559-.331zm-2.657-.257v-2.346h1.811q.23 0 .354.141a.58.58 0 0 1 .123.391v1.282q0 .248-.123.39c-.123.142-.199.143-.354.143zM68.577 67.485l-2.558-4.967h-.557v6.127h.557v-4.959l2.558 4.959h.557v-6.127h-.557ZM75.213 65.843a1.1 1.1 0 0 0-.271-.201 2 2 0 0 0-.336-.139q-.246-.083-.41-.133a7 7 0 0 1-.316-.102q-.15-.049-.318-.101a22 22 0 0 1-.424-.133.9.9 0 0 1-.332-.184q-.126-.12-.127-.358v-.836q.001-.248.119-.395.12-.147.357-.146h1.23q.237 0 .355.146.12.146.119.396v.663l.574-.111v-.662q0-.452-.254-.741a.83.83 0 0 0-.648-.289h-1.518a.84.84 0 0 0-.65.285q-.259.285-.26.736v1.066q0 .423.246.649.246.224.615.345.23.073.398.124.168.05.324.101l.328.106q.17.056.41.128a.8.8 0 0 1 .348.194q.111.118.111.349v.911a.6.6 0 0 1-.119.391q-.12.144-.357.143h-1.279q-.237 0-.355-.143a.6.6 0 0 1-.119-.391v-.672l-.574.11v.672q0 .442.258.732a.84.84 0 0 0 .652.289h1.566a.82.82 0 0 0 .646-.289q.256-.29.256-.73v-1.12q0-.22-.066-.382c-.066-.162-.103-.198-.179-.278zM78.137 65.6l-1.391-3.082h-.607l1.715 3.79v2.337h.574v-2.337l1.713-3.79h-.608ZM83.576 62.518h-2.459v6.127h2.459a.84.84 0 0 0 .652-.289q.258-.291.258-.732V63.54q0-.451-.258-.736a.84.84 0 0 0-.652-.286zm.336 4.995q.001.248-.127.391a.44.44 0 0 1-.348.143h-1.746v-4.93h1.746q.22 0 .348.142.128.143.127.392zM89.104 67.485l-2.559-4.967h-.559v6.127h.559v-4.959l2.559 4.959h.556v-6.127h-.556ZM91.777 65.773h2.311v-.597h-2.311v-2.06h2.541v-.598h-3.115v6.127h3.131v-.599h-2.557ZM98.533 62.518 97.135 65.6l-1.391-3.082h-.605l1.713 3.79v2.337h.574v-2.337l1.715-3.79Z"/></g></svg>

<svg enable-background="new 0 0 100 94" height="94" viewBox="0 0 100 94" width="100" xmlns="http://www.w3.org/2000/svg"><path d="M 39.259 23.308 L 40.003 22.829 L 40.841 22.509 L 41.727 22.429 L 68.758 22.429 L 84.434 .564 L 43.929 .564 L 41.197 .687 L 38.506 1.043 L 35.956 1.656 L 33.491 2.534 L 31.109 3.586 L 28.862 4.862 L 26.756 6.312 L 24.818 7.938 L 23.01 9.734 L 21.333 11.715 L 19.886 13.817 L 18.606 16.014 L 17.554 18.383 L 16.713 20.846 L 16.092 23.438 L 15.698 26.073 L 15.565 28.787 L 15.698 31.517 L 16.092 34.151 L 16.713 36.69 L 17.554 39.193 L 18.606 41.522 L 19.886 43.771 L 21.333 45.874 L 23.01 47.843 L 24.818 49.654 L 26.756 51.276 L 28.862 52.726 L 31.109 53.991 L 33.491 55.055 L 35.956 55.881 L 38.506 56.506 L 41.197 56.894 L 43.929 57.025 L 64.137 28.842 L 48.547 28.842 L 47.279 30.598 L 46.656 31.25 L 45.902 31.783 L 45.076 32.089 L 44.144 32.222 L 32.736 32.222 L 38.639 23.957 Z" fill="#f15c22"/><g><path d="M 18.953 70.406 H 23.979 V 93.435 H 18.953 Z" fill="#f15c22"/><path d="M 8.074 85.259 L 11.343 85.259 L 11.343 88.506 L 11.343 88.695 L 11.247 88.771 L 11.162 88.866 L 11.032 88.866 L 5.874 88.866 L 5.741 88.866 L 5.609 88.771 L 5.576 88.695 L 5.526 88.506 L 5.526 75.32 L 5.576 75.186 L 5.609 75.068 L 5.741 75.015 L 5.874 74.974 L 10.982 74.974 L 11.114 75.015 L 11.209 75.068 L 11.294 75.186 L 11.343 75.32 L 11.343 77.65 L 16.223 77.65 L 16.223 74.227 L 16.138 73.349 L 15.876 72.561 L 15.388 71.804 L 14.812 71.244 L 14.105 70.805 L 13.315 70.484 L 12.443 70.406 L 4.329 70.406 L 3.456 70.484 L 2.667 70.805 L 1.912 71.244 L 1.336 71.804 L .894 72.561 L .594 73.349 L .5 74.227 L .5 89.652 L .594 90.532 L .894 91.331 L 1.336 92.021 L 1.912 92.595 L 2.667 93.033 L 3.456 93.341 L 4.329 93.436 L 12.479 93.436 L 13.497 93.299 L 14.382 92.901 L 15.173 92.329 L 15.747 91.543 L 16.138 90.663 L 16.273 89.652 L 16.273 80.9 L 8.074 80.9 Z" fill="#f15c22"/><path d="M 99.453 83.458 L 99.235 82.751 L 98.924 82.139 L 98.449 81.66 L 97.873 81.262 L 97.215 80.954 L 96.412 80.688 L 94.785 80.246 L 93.423 79.85 L 92.271 79.543 L 91.351 79.277 L 90.645 79.062 L 90.068 78.93 L 89.724 78.799 L 89.509 78.757 L 89.374 78.704 L 89.282 78.626 L 89.197 78.531 L 89.147 78.449 L 89.103 78.318 L 89.103 75.32 L 89.147 75.186 L 89.244 75.068 L 89.329 75.015 L 89.459 74.974 L 94.129 74.974 L 94.259 75.015 L 94.344 75.068 L 94.438 75.186 L 94.474 75.32 L 94.474 77.265 L 99.37 77.265 L 99.37 74.227 L 99.285 73.349 L 99.009 72.561 L 98.529 71.804 L 97.958 71.244 L 97.253 70.805 L 96.462 70.484 L 95.576 70.406 L 87.963 70.406 L 87.079 70.484 L 86.241 70.805 L 85.535 71.244 L 84.974 71.804 L 84.53 72.561 L 84.218 73.349 L 84.133 74.227 L 84.133 79.371 L 84.218 80.211 L 84.397 80.9 L 84.745 81.474 L 85.235 81.968 L 85.798 82.352 L 86.551 82.712 L 87.342 82.977 L 88.839 83.366 L 90.118 83.766 L 91.221 84.07 L 92.105 84.297 L 92.812 84.51 L 93.374 84.686 L 93.779 84.774 L 94.079 84.858 L 94.209 84.912 L 94.344 84.99 L 94.438 85.085 L 94.523 85.177 L 94.523 85.298 L 94.523 88.506 L 94.523 88.695 L 94.438 88.771 L 94.306 88.866 L 94.174 88.866 L 89.329 88.866 L 89.197 88.866 L 89.065 88.771 L 89.018 88.695 L 88.968 88.506 L 88.968 86.577 L 84.041 86.577 L 84.041 89.652 L 84.171 90.532 L 84.433 91.331 L 84.877 92.021 L 85.5 92.595 L 86.206 93.033 L 86.994 93.341 L 87.87 93.436 L 95.706 93.436 L 96.592 93.341 L 97.382 93.033 L 98.088 92.595 L 98.664 92.021 L 99.155 91.331 L 99.417 90.532 L 99.5 89.652 L 99.5 84.297 Z" fill="#f15c22"/><path d="M 59.243 83.899 L 51.539 70.406 L 46.704 70.406 L 46.704 93.436 L 51.539 93.436 L 51.539 80.021 L 59.243 93.436 L 64.09 93.436 L 64.09 70.406 L 59.243 70.406 Z" fill="#f15c22"/><path d="M 32.787 70.406 l -7.541 23.029 h 5.111 l 1.412 -4.569 h 7.094 l 1.447 4.569 h 5.161 l -7.623 -23.029 H 32.787 z M 33.264 84.473 l 2.071 -7.699 l 2.073 7.699 H 33.264 z" fill="#f15c22"/><path d="M 65.851 74.974 L 71.845 74.974 L 71.845 93.436 L 76.859 93.436 L 76.859 74.974 L 82.807 74.974 L 82.807 70.406 L 65.851 70.406 Z" fill="#f15c22"/></g><g><path d="M 3.248 62.518 H 1.6 c -.263 0 -.479 .096 -.648 .285 c -.169 .19 -.254 .436 -.254 .736 v 4.084 c 0 .146 .023 .284 .07 .41 c .046 .125 .109 .232 .188 .322 c .08 .088 .174 .158 .283 .211 c .109 .052 .229 .078 .361 .078 h 1.648 c .263 0 .48 -.097 .652 -.291 c .172 -.193 .258 -.438 .258 -.733 V 65.6 H 2.444 v .597 h 1.14 v 1.316 c 0 .165 -.042 .296 -.127 .391 c -.085 .096 -.201 .143 -.349 .143 H 1.747 c -.147 0 -.264 -.047 -.349 -.143 c -.084 -.095 -.127 -.226 -.127 -.391 v -3.863 c 0 -.167 .042 -.296 .127 -.392 c .085 -.095 .201 -.142 .349 -.142 h 1.361 c .147 0 .264 .047 .349 .142 c .084 .096 .127 .225 .127 .392 v .635 l .574 -.102 v -.644 c 0 -.301 -.086 -.546 -.258 -.736 C 3.728 62.613 3.51 62.518 3.248 62.518 z" fill="#36454f" stroke="#36454f" stroke-miterlimit="10" stroke-width=".15"/><path d="M 8.932 65.719 c .137 -.178 .205 -.405 .205 -.682 v -1.498 c 0 -.301 -.085 -.546 -.254 -.736 c -.169 -.189 -.385 -.285 -.647 -.285 H 5.701 v 6.127 h .574 v -2.586 H 7.76 l 1.123 2.586 h .615 L 8.375 66.05 C 8.609 66.007 8.795 65.896 8.932 65.719 z M 6.275 65.462 v -2.346 h 1.812 c .153 0 .271 .047 .353 .141 c .082 .096 .123 .225 .123 .391 v 1.282 c 0 .165 -.041 .295 -.123 .39 c -.082 .095 -.2 .143 -.353 .143 H 6.275 z" fill="#36454f" stroke="#36454f" stroke-miterlimit="10" stroke-width=".15"/><path d="M 11.245 65.773 L 13.557 65.773 L 13.557 65.176 L 11.245 65.176 L 11.245 63.116 L 13.787 63.116 L 13.787 62.518 L 10.67 62.518 L 10.67 68.645 L 13.803 68.645 L 13.803 68.046 L 11.245 68.046 Z" fill="#36454f" stroke="#36454f" stroke-miterlimit="10" stroke-width=".15"/><path d="M 16.82 62.518 l -1.886 6.127 h .582 l .476 -1.582 h 2.181 l .492 1.582 h .582 l -1.886 -6.127 H 16.82 z M 16.172 66.464 l .918 -3.155 l .91 3.155 H 16.172 z" fill="#36454f" stroke="#36454f" stroke-miterlimit="10" stroke-width=".15"/><path d="M 19.373 63.116 L 21.004 63.116 L 21.004 68.645 L 21.578 68.645 L 21.578 63.116 L 23.202 63.116 L 23.202 62.518 L 19.373 62.518 Z" fill="#36454f" stroke="#36454f" stroke-miterlimit="10" stroke-width=".15"/><path d="M 24.888 65.773 L 27.201 65.773 L 27.201 65.176 L 24.888 65.176 L 24.888 63.116 L 27.43 63.116 L 27.43 62.518 L 24.314 62.518 L 24.314 68.645 L 27.447 68.645 L 27.447 68.046 L 24.888 68.046 Z" fill="#36454f" stroke="#36454f" stroke-miterlimit="10" stroke-width=".15"/><path d="M 31.971 65.719 c .137 -.178 .205 -.405 .205 -.682 v -1.498 c 0 -.301 -.085 -.546 -.254 -.736 c -.169 -.189 -.385 -.285 -.647 -.285 H 28.74 v 6.127 h .574 v -2.586 h 1.484 l 1.123 2.586 h .615 l -1.124 -2.595 C 31.648 66.007 31.834 65.896 31.971 65.719 z M 29.314 65.462 v -2.346 h 1.812 c .153 0 .271 .047 .353 .141 c .082 .096 .123 .225 .123 .391 v 1.282 c 0 .165 -.041 .295 -.123 .39 c -.082 .095 -.2 .143 -.353 .143 H 29.314 z" fill="#36454f" stroke="#36454f" stroke-miterlimit="10" stroke-width=".15"/><path d="M 39.546 67.596 L 38.349 62.518 L 37.833 62.518 L 36.627 67.596 L 35.709 62.518 L 35.151 62.518 L 36.315 68.645 L 36.898 68.645 L 38.087 63.529 L 39.284 68.645 L 39.858 68.645 L 41.022 62.518 L 40.465 62.518 Z" fill="#36454f" stroke="#36454f" stroke-miterlimit="10" stroke-width=".15"/><path d="M 42.957 65.773 L 45.268 65.773 L 45.268 65.176 L 42.957 65.176 L 42.957 63.116 L 45.499 63.116 L 45.499 62.518 L 42.382 62.518 L 42.382 68.645 L 45.514 68.645 L 45.514 68.046 L 42.957 68.046 Z" fill="#36454f" stroke="#36454f" stroke-miterlimit="10" stroke-width=".15"/><path d="M 49.754 65.843 c -.077 -.079 -.167 -.146 -.271 -.201 c -.104 -.056 -.217 -.102 -.337 -.139 c -.164 -.055 -.301 -.1 -.409 -.133 c -.11 -.033 -.215 -.067 -.316 -.102 c -.101 -.033 -.208 -.066 -.319 -.101 c -.112 -.034 -.253 -.078 -.423 -.133 c -.137 -.044 -.247 -.104 -.332 -.184 s -.127 -.2 -.127 -.358 v -.836 c 0 -.166 .04 -.297 .119 -.395 c .079 -.099 .198 -.146 .356 -.146 h 1.23 c .158 0 .277 .048 .356 .146 c .079 .098 .119 .229 .119 .396 v .663 l .573 -.111 v -.662 c 0 -.301 -.084 -.548 -.254 -.741 c -.169 -.192 -.386 -.289 -.647 -.289 h -1.518 c -.262 0 -.479 .096 -.651 .285 c -.172 .19 -.259 .436 -.259 .736 v 1.066 c 0 .282 .082 .499 .246 .649 c .164 .149 .369 .265 .615 .345 c .153 .049 .285 .09 .397 .124 c .112 .033 .221 .067 .324 .101 c .104 .034 .213 .069 .328 .106 c .114 .037 .251 .08 .41 .128 c .158 .049 .274 .114 .349 .194 c .073 .079 .11 .195 .11 .349 v .911 c 0 .165 -.04 .296 -.119 .391 c -.079 .096 -.198 .143 -.356 .143 h -1.279 c -.158 0 -.277 -.047 -.356 -.143 c -.08 -.095 -.119 -.226 -.119 -.391 v -.672 l -.574 .11 v .672 c 0 .295 .086 .538 .259 .732 c .172 .192 .39 .289 .651 .289 h 1.566 c .263 0 .479 -.097 .647 -.289 c .17 -.193 .255 -.437 .255 -.73 v -1.12 c 0 -.147 -.022 -.274 -.066 -.382 C 49.891 66.016 49.83 65.923 49.754 65.843 z" fill="#36454f" stroke="#36454f" stroke-miterlimit="10" stroke-width=".15"/><path d="M 51.062 63.116 L 52.694 63.116 L 52.694 68.645 L 53.269 68.645 L 53.269 63.116 L 54.892 63.116 L 54.892 62.518 L 51.062 62.518 Z" fill="#36454f" stroke="#36454f" stroke-miterlimit="10" stroke-width=".15"/><path d="M 56.537 65.773 L 58.848 65.773 L 58.848 65.176 L 56.537 65.176 L 56.537 63.116 L 59.078 63.116 L 59.078 62.518 L 55.963 62.518 L 55.963 68.645 L 59.094 68.645 L 59.094 68.046 L 56.537 68.046 Z" fill="#36454f" stroke="#36454f" stroke-miterlimit="10" stroke-width=".15"/><path d="M 63.599 65.719 c .137 -.178 .205 -.405 .205 -.682 v -1.498 c 0 -.301 -.086 -.546 -.254 -.736 c -.17 -.189 -.387 -.285 -.648 -.285 h -2.533 v 6.127 h .574 v -2.586 h 1.482 l 1.125 2.586 h .613 L 63.04 66.05 C 63.276 66.007 63.462 65.896 63.599 65.719 z M 60.942 65.462 v -2.346 h 1.811 c .154 0 .271 .047 .354 .141 c .082 .096 .123 .225 .123 .391 v 1.282 c 0 .165 -.041 .295 -.123 .39 s -.199 .143 -.354 .143 H 60.942 z" fill="#36454f" stroke="#36454f" stroke-miterlimit="10" stroke-width=".15"/><path d="M 68.577 67.485 L 66.019 62.518 L 65.462 62.518 L 65.462 68.645 L 66.019 68.645 L 66.019 63.686 L 68.577 68.645 L 69.134 68.645 L 69.134 62.518 L 68.577 62.518 Z" fill="#36454f" stroke="#36454f" stroke-miterlimit="10" stroke-width=".15"/><path d="M 75.213 65.843 c -.078 -.079 -.168 -.146 -.271 -.201 c -.104 -.056 -.217 -.102 -.336 -.139 c -.164 -.055 -.301 -.1 -.41 -.133 s -.215 -.067 -.316 -.102 c -.1 -.033 -.207 -.066 -.318 -.101 c -.113 -.034 -.254 -.078 -.424 -.133 c -.137 -.044 -.246 -.104 -.332 -.184 c -.084 -.08 -.127 -.2 -.127 -.358 v -.836 c 0 -.166 .041 -.297 .119 -.395 c .08 -.099 .199 -.146 .357 -.146 h 1.23 c .158 0 .277 .048 .355 .146 c .08 .098 .119 .229 .119 .396 v .663 l .574 -.111 v -.662 c 0 -.301 -.084 -.548 -.254 -.741 c -.17 -.192 -.387 -.289 -.648 -.289 h -1.518 c -.262 0 -.479 .096 -.65 .285 c -.172 .19 -.26 .436 -.26 .736 v 1.066 c 0 .282 .082 .499 .246 .649 c .164 .149 .369 .265 .615 .345 c .154 .049 .285 .09 .398 .124 c .111 .033 .221 .067 .324 .101 c .104 .034 .213 .069 .328 .106 c .113 .037 .25 .08 .41 .128 c .158 .049 .273 .114 .348 .194 c .074 .079 .111 .195 .111 .349 v .911 c 0 .165 -.041 .296 -.119 .391 c -.08 .096 -.199 .143 -.357 .143 h -1.279 c -.158 0 -.277 -.047 -.355 -.143 c -.08 -.095 -.119 -.226 -.119 -.391 v -.672 l -.574 .11 v .672 c 0 .295 .086 .538 .258 .732 c .172 .192 .391 .289 .652 .289 h 1.566 c .262 0 .479 -.097 .646 -.289 c .17 -.193 .256 -.437 .256 -.73 v -1.12 c 0 -.147 -.023 -.274 -.066 -.382 S 75.289 65.923 75.213 65.843 z" fill="#36454f" stroke="#36454f" stroke-miterlimit="10" stroke-width=".15"/><path d="M 78.137 65.6 L 76.746 62.518 L 76.139 62.518 L 77.854 66.308 L 77.854 68.645 L 78.428 68.645 L 78.428 66.308 L 80.141 62.518 L 79.533 62.518 Z" fill="#36454f" stroke="#36454f" stroke-miterlimit="10" stroke-width=".15"/><path d="M 83.576 62.518 h -2.459 v 6.127 h 2.459 c .262 0 .48 -.097 .652 -.289 c .172 -.194 .258 -.438 .258 -.732 v -4.084 c 0 -.301 -.086 -.546 -.258 -.736 C 84.057 62.613 83.838 62.518 83.576 62.518 z M 83.912 67.513 c 0 .165 -.041 .296 -.127 .391 c -.084 .096 -.201 .143 -.348 .143 h -1.746 v -4.93 h 1.746 c .146 0 .264 .047 .348 .142 c .086 .096 .127 .225 .127 .392 V 67.513 z" fill="#36454f" stroke="#36454f" stroke-miterlimit="10" stroke-width=".15"/><path d="M 89.104 67.485 L 86.545 62.518 L 85.986 62.518 L 85.986 68.645 L 86.545 68.645 L 86.545 63.686 L 89.104 68.645 L 89.66 68.645 L 89.66 62.518 L 89.104 62.518 Z" fill="#36454f" stroke="#36454f" stroke-miterlimit="10" stroke-width=".15"/><path d="M 91.777 65.773 L 94.088 65.773 L 94.088 65.176 L 91.777 65.176 L 91.777 63.116 L 94.318 63.116 L 94.318 62.518 L 91.203 62.518 L 91.203 68.645 L 94.334 68.645 L 94.334 68.046 L 91.777 68.046 Z" fill="#36454f" stroke="#36454f" stroke-miterlimit="10" stroke-width=".15"/><path d="M 98.533 62.518 L 97.135 65.6 L 95.744 62.518 L 95.139 62.518 L 96.852 66.308 L 96.852 68.645 L 97.426 68.645 L 97.426 66.308 L 99.141 62.518 Z" fill="#36454f" stroke="#36454f" stroke-miterlimit="10" stroke-width=".15"/></g></svg>
